source/img/airbus.svg

<svg width="158" height="85" viewBox="0 0 158 85" fill="none" xmlns="http://www.w3.org/2000/svg">
<path fill-rule="evenodd" clip-rule="evenodd" d="M121.529 47.7416C114.455 49.6233 101.841 54.5695 93.9439 57.2039C90.434 58.3867 90.3243 59.7846 92.5728 62.0964C96.5215 66.1287 101.402 72.0964 105.68 76.6125C111.713 83.0104 112.919 88.4405 121.804 82.2577C123.339 81.2362 125.094 79.1932 126.026 77.1502C128.165 72.3652 125.697 59.8383 124.875 52.9566C124.601 50.3222 124.93 46.8276 121.529 47.7416ZM9.15805 57.634C7.787 59.3007 3.01574 62.3652 3.89321 65.9674C8.17089 83.9244 146.921 40.5373 157.177 18.6018C160.412 11.6663 153.557 2.5265 145.989 6.12865C142.808 7.63403 124.272 16.0749 122.9 16.3975L123.284 11.1824L135.624 5.64478L139.408 3.81683C124.491 2.36521 107.271 8.49424 95.3149 13.1179C93.9439 13.6555 91.5308 14.7846 90.1598 14.5157L74.0362 10.376C66.7971 8.38672 59.7773 6.77381 52.4833 4.78457C47.3281 3.38672 35.1532 -0.215433 30.2722 -0.000379341C25.5558 0.214674 17.5489 3.65553 16.6714 6.82758C16.0133 9.08564 17.1101 10.5373 18.3715 11.4512C22.2653 14.3007 49.9605 31.2899 51.0025 32.3652L32.3562 42.5265C28.5721 44.5695 29.8335 44.3007 25.8849 42.3652C21.7717 40.3222 17.4392 37.7953 13.1067 35.6985C10.8033 34.5695 8.06121 33.7093 5.04489 34.5157C-6.58163 37.4727 4.88037 50.5373 9.15805 57.634Z" fill="#E31B1B"/>
</svg>

<svg width="158" height="85" fill="none" xmlns="http://www.w3.org/2000/svg"><path fill-rule="evenodd" clip-rule="evenodd" d="M121.529 47.742c-7.074 1.881-19.688 6.828-27.585 9.462-3.51 1.183-3.62 2.58-1.371 4.892 3.949 4.033 8.829 10 13.107 14.517 6.033 6.397 7.239 11.828 16.124 5.645 1.535-1.022 3.29-3.065 4.222-5.108 2.139-4.785-.329-17.312-1.151-24.193-.274-2.635.055-6.13-3.346-5.215zM9.159 57.634c-1.372 1.667-6.143 4.731-5.266 8.333 4.278 17.957 143.028-25.43 153.284-47.365 3.235-6.936-3.62-16.076-11.188-12.473-3.181 1.505-21.717 9.946-23.089 10.269l.384-5.216 12.34-5.537 3.784-1.828c-14.917-1.452-32.137 4.677-44.093 9.3-1.371.538-3.784 1.668-5.155 1.399l-16.124-4.14c-7.239-1.99-14.259-3.602-21.553-5.591-5.155-1.398-17.33-5-22.21-4.785-4.717.215-12.724 3.656-13.602 6.828-.658 2.258.44 3.71 1.7 4.623 3.894 2.85 31.59 19.839 32.632 20.914L32.355 42.526c-3.784 2.043-2.523 1.775-6.471-.16-4.113-2.044-8.446-4.57-12.778-6.667-2.304-1.13-5.046-1.99-8.062-1.183-11.627 2.957-.165 16.021 4.113 23.118z" fill="#E31B1B"/></svg>
